src/img/eliminar.svg

<svg width="20" height="21" viewBox="0 0 20 21" fill="none" xmlns="http://www.w3.org/2000/svg">
<path d="M7.00781 17.5078C6.86719 17.5078 6.74219 17.4609 6.63281 17.3672C6.53906 17.2578 6.49219 17.1328 6.49219 16.9922V8.50781H7.5V16.9922C7.5 17.1328 7.45312 17.2578 7.35938 17.3672C7.26562 17.4609 7.14844 17.5078 7.00781 17.5078ZM10.5 16.9922V8.50781H9.49219V16.9922C9.49219 17.1328 9.53906 17.2578 9.63281 17.3672C9.74219 17.4609 9.86719 17.5078 10.0078 17.5078C10.1328 17.5078 10.2422 17.4609 10.3359 17.3672C10.4453 17.2578 10.5 17.1328 10.5 16.9922ZM13.5 16.9922V8.50781H12.4922V16.9922C12.4922 17.1328 12.5391 17.2578 12.6328 17.3672C12.7422 17.4609 12.8672 17.5078 13.0078 17.5078C13.1328 17.5078 13.2422 17.4609 13.3359 17.3672C13.4453 17.2578 13.5 17.1328 13.5 16.9922ZM19.5 4.5V6.49219C19.5 6.77344 19.3984 7.01562 19.1953 7.21875C19.0078 7.40625 18.7734 7.5 18.4922 7.5H1.5C1.21875 7.5 0.976563 7.40625 0.773438 7.21875C0.585938 7.01562 0.492188 6.77344 0.492188 6.49219V4.5C0.492188 4.21875 0.585938 3.98438 0.773438 3.79688C0.976563 3.59375 1.21875 3.49219 1.5 3.49219H5.50781V1.5C5.50781 1.21875 5.60156 0.984375 5.78906 0.796875C5.99219 0.59375 6.22656 0.492188 6.49219 0.492188H13.5C13.7812 0.492188 14.0156 0.59375 14.2031 0.796875C14.4062 0.984375 14.5078 1.21875 14.5078 1.5V3.49219H18.4922C18.7734 3.49219 19.0078 3.59375 19.1953 3.79688C19.3984 3.98438 19.5 4.21875 19.5 4.5ZM6.49219 3.49219H13.5V1.5H6.49219V3.49219ZM18.4922 4.5H1.5V6.49219H18.4922V4.5ZM16.5 8.50781V17.5078C16.5 18.0547 16.3047 18.5234 15.9141 18.9141C15.5234 19.3047 15.0547 19.5 14.5078 19.5H5.50781C4.94531 19.5 4.46875 19.3047 4.07812 18.9141C3.6875 18.5234 3.49219 18.0547 3.49219 17.5078V8.50781H2.50781V17.5078C2.50781 18.3359 2.79688 19.0391 3.375 19.6172C3.96875 20.2109 4.67969 20.5078 5.50781 20.5078H14.5078C15.3359 20.5078 16.0391 20.2109 16.6172 19.6172C17.2109 19.0391 17.5078 18.3359 17.5078 17.5078V8.50781H16.5Z" fill="#56504C"/>
</svg>

<svg width="20" height="21" fill="none" xmlns="http://www.w3.org/2000/svg"><path d="M7.008 17.508a.56.56 0 01-.375-.14.56.56 0 01-.14-.376V8.508H7.5v8.484a.56.56 0 01-.14.375.477.477 0 01-.352.14zm3.492-.516V8.508H9.492v8.484c0 .14.047.266.14.375a.56.56 0 00.376.14.45.45 0 00.328-.14.516.516 0 00.164-.375zm3 0V8.508h-1.008v8.484c0 .14.047.266.14.375a.56.56 0 00.376.14.45.45 0 00.328-.14.516.516 0 00.164-.375zm6-12.492v1.992a.992.992 0 01-.305.727.954.954 0 01-.703.281H1.5a1.04 1.04 0 01-.727-.281 1.034 1.034 0 01-.28-.727V4.5c0-.281.093-.516.28-.703a.992.992 0 01.727-.305h4.008V1.5c0-.281.094-.516.281-.703a.966.966 0 01.703-.305H13.5c.281 0 .516.102.703.305a.917.917 0 01.305.703v1.992h3.984c.281 0 .516.102.703.305a.917.917 0 01.305.703zM6.492 3.492H13.5V1.5H6.492v1.992zm12 1.008H1.5v1.992h16.992V4.5zM16.5 8.508v9c0 .547-.195 1.015-.586 1.406-.39.39-.86.586-1.406.586h-9c-.563 0-1.04-.195-1.43-.586a1.92 1.92 0 01-.586-1.406v-9h-.984v9c0 .828.289 1.531.867 2.11.594.593 1.305.89 2.133.89h9c.828 0 1.531-.297 2.11-.89.593-.579.89-1.282.89-2.11v-9H16.5z" fill="#56504C"/></svg>
